Faba/16x16/status/starred.svg

<?xml version="1.0" encoding="UTF-8" standalone="no"?>
<!-- Created with Inkscape (http://www.inkscape.org/) -->

<svg
   xmlns:dc="http://purl.org/dc/elements/1.1/"
   xmlns:cc="http://creativecommons.org/ns#"
   xmlns:rdf="http://www.w3.org/1999/02/22-rdf-syntax-ns#"
   xmlns:svg="http://www.w3.org/2000/svg"
   xmlns="http://www.w3.org/2000/svg"
   xmlns:xlink="http://www.w3.org/1999/xlink"
   xmlns:sodipodi="http://sodipodi.sourceforge.net/DTD/sodipodi-0.dtd"
   xmlns:inkscape="http://www.inkscape.org/namespaces/inkscape"
   version="1.1"
   width="16"
   height="16"
   id="svg5808"
   inkscape:version="0.48.4 r9939"
   sodipodi:docname="starred.svg">
  <sodipodi:namedview
     pagecolor="#000000"
     bordercolor="#666666"
     borderopacity="1"
     objecttolerance="10"
     gridtolerance="10"
     guidetolerance="10"
     inkscape:pageopacity="0"
     inkscape:pageshadow="2"
     inkscape:window-width="1364"
     inkscape:window-height="700"
     id="namedview26"
     showgrid="false"
     showborder="false"
     inkscape:zoom="1"
     inkscape:cx="14.057858"
     inkscape:cy="1.1894091"
     inkscape:window-x="0"
     inkscape:window-y="28"
     inkscape:window-maximized="1"
     inkscape:current-layer="svg5808">
    <inkscape:grid
       type="xygrid"
       id="grid3846"
       empspacing="5"
       visible="true"
       enabled="true"
       snapvisiblegridlinesonly="true" />
  </sodipodi:namedview>
  <defs
     id="defs5810">
    <linearGradient
       id="linearGradient3838">
      <stop
         style="stop-color:#ffe880;stop-opacity:1;"
         offset="0"
         id="stop3840" />
      <stop
         style="stop-color:#fff69c;stop-opacity:1;"
         offset="1"
         id="stop3842" />
    </linearGradient>
    <linearGradient
       id="linearGradient6728">
      <stop
         id="stop6730"
         style="stop-color:#dcc152;stop-opacity:1"
         offset="0" />
      <stop
         id="stop6732"
         style="stop-color:#c7ae46;stop-opacity:1"
         offset="1" />
    </linearGradient>
    <linearGradient
       x1="223.51138"
       y1="1199.033"
       x2="223.51138"
       y2="1181.2115"
       id="linearGradient6807"
       xlink:href="#linearGradient4222-8-1-7-8-1-5-9"
       gradientUnits="userSpaceOnUse" />
    <linearGradient
       id="linearGradient6801">
      <stop
         id="stop6803"
         style="stop-color:#ffffff;stop-opacity:1"
         offset="0" />
      <stop
         id="stop6805"
         style="stop-color:#ffffff;stop-opacity:0"
         offset="1" />
    </linearGradient>
    <linearGradient
       x1="16.646177"
       y1="-33.686405"
       x2="1.0360155"
       y2="-33.686405"
       id="linearGradient6455"
       xlink:href="#linearGradient6801"
       gradientUnits="userSpaceOnUse"
       gradientTransform="matrix(0,-0.48414005,-0.46524241,0,-10.763163,10.845084)" />
    <linearGradient
       id="linearGradient4222-8-1-7-8-1-5-9">
      <stop
         id="stop4224-4-3-2-5-0-2-7"
         style="stop-color:#000000;stop-opacity:1"
         offset="0" />
      <stop
         id="stop4226-8-1-6-0-5-2-0"
         style="stop-color:#000000;stop-opacity:0"
         offset="1" />
    </linearGradient>
    <linearGradient
       x1="11"
       y1="1"
       x2="11"
       y2="15"
       id="linearGradient6734"
       xlink:href="#linearGradient6728"
       gradientUnits="userSpaceOnUse" />
    <linearGradient
       id="linearGradient6728-5">
      <stop
         id="stop6730-4"
         style="stop-color:#c8a100;stop-opacity:1"
         offset="0" />
      <stop
         id="stop6732-0"
         style="stop-color:#bc9000;stop-opacity:1"
         offset="1" />
    </linearGradient>
    <linearGradient
       x1="11"
       y1="1"
       x2="11"
       y2="15"
       id="linearGradient3817"
       xlink:href="#linearGradient6728-5"
       gradientUnits="userSpaceOnUse" />
    <linearGradient
       inkscape:collect="always"
       xlink:href="#linearGradient3838"
       id="linearGradient3844"
       x1="16"
       y1="16"
       x2="16"
       y2="0"
       gradientUnits="userSpaceOnUse"
       gradientTransform="translate(0,1.7382813e-5)" />
    <linearGradient
       inkscape:collect="always"
       xlink:href="#linearGradient3838"
       id="linearGradient3009"
       gradientUnits="userSpaceOnUse"
       x1="16"
       y1="16"
       x2="16"
       y2="0" />
  </defs>
  <metadata
     id="metadata5813">
    <rdf:RDF>
      <cc:Work
         rdf:about="">
        <dc:format>image/svg+xml</dc:format>
        <dc:type
           rdf:resource="http://purl.org/dc/dcmitype/StillImage" />
        <dc:title />
      </cc:Work>
    </rdf:RDF>
  </metadata>
  <path
     style="font-style:normal;font-variant:normal;font-weight:normal;font-stretch:normal;text-indent:0;text-align:start;text-decoration:none;line-height:normal;letter-spacing:normal;word-spacing:normal;text-transform:none;direction:ltr;block-progression:tb;writing-mode:lr-tb;text-anchor:start;baseline-shift:baseline;color:#000000;fill:url(#linearGradient3844);fill-opacity:1;stroke:none;stroke-width:5.35943031;marker:none;visibility:visible;display:inline;overflow:visible;enable-background:accumulate;font-family:sans-serif;-inkscape-font-specification:sans-serif"
     d="m 8,1.8125174 -0.46875,1.1875 -1.1875,3.0625 -0.09375,0.3125 -0.34375,0 -3.34375,0.1875 -1.28125,0.062 1,0.8125 2.59375,2.0938 0,0.031 0.28125,0.2188 -0.09375,0.2499996 0,0.031 -0.84375,3.1875 -0.34375,1.25 1.09375,-0.7187 2.78125,-1.8125 0.25,-0.1563 0.25,0.1563 2.78125,1.8125 1.09375,0.7187 -0.34375,-1.25 -0.84375,-3.1875 0,-0.031 -0.09375,-0.2499996 0.28125,-0.2188 0,-0.031 2.59375,-2.0938 1,-0.8125 -1.28125,-0.062 -3.34375,-0.1875 -0.34375,0 -0.09375,-0.3125 -1.1875,-3.0625 L 8,1.8125174 z"
     id="path3813"
     inkscape:connector-curvature="0" />
  <path
     style="font-style:normal;font-variant:normal;font-weight:normal;font-stretch:normal;text-indent:0;text-align:start;text-decoration:none;line-height:normal;letter-spacing:normal;word-spacing:normal;text-transform:none;direction:ltr;block-progression:tb;writing-mode:lr-tb;text-anchor:start;baseline-shift:baseline;color:#000000;fill:#ad9300;fill-opacity:1;stroke:none;stroke-width:5.35943030999999959;marker:none;visibility:visible;display:inline;overflow:visible;enable-background:accumulate;font-family:sans-serif;-inkscape-font-specification:sans-serif;opacity:0.8"
     d="M 8,0.40631738 5.875,5.8750174 0,6.2188174 l 4.5625,3.6875 -1.5,5.6874996 4.9375,-3.1875 4.9375,3.1875 -1.5,-5.6874996 L 16,6.2188174 10.125,5.8750174 8,0.40631738 z m 0,2.78120002 1.1875,3.0625 0.21875,0.5938 0.65625,0.031 3.34375,0.1875 -2.59375,2.0938 -0.53125,0.4062 0.1875,0.6249996 0.84375,3.1875 -2.78125,-1.8125 L 8,11.218817 l -0.53125,0.3437 -2.78125,1.8125 0.84375,-3.1875 0.1875,-0.6249996 -0.53125,-0.4062 -2.59375,-2.0938 3.34375,-0.1875 0.65625,-0.031 0.21875,-0.5938 L 8,3.1875174 z"
     id="polygon5122-0"
     inkscape:connector-curvature="0" />
  <path
     style="font-style:normal;font-variant:normal;font-weight:normal;font-stretch:normal;text-indent:0;text-align:start;text-decoration:none;line-height:normal;letter-spacing:normal;word-spacing:normal;text-transform:none;direction:ltr;block-progression:tb;writing-mode:lr-tb;text-anchor:start;baseline-shift:baseline;opacity:0.6;color:#000000;fill:#ffffff;fill-opacity:1;stroke:none;stroke-width:5.35943031;marker:none;visibility:visible;display:inline;overflow:visible;enable-background:accumulate;font-family:sans-serif;-inkscape-font-specification:sans-serif"
     d="m 8,3.1875174 -1.1875,3.0313 0,0.031 -0.09375,0.2813 -0.09375,0.3437 -0.375,0 -0.3125,0 -0.03125,0 -3.3125,0.1875 1.15625,0.9375 2.15625,-0.125 0.03125,0 0.3125,0 0.375,0 0.09375,-0.3437 0.09375,-0.2813 0,-0.031 1.1875,-3.0313 1.1875,3.0313 0,0.031 0.09375,0.2813 0.09375,0.3437 0.375,0 0.3125,0 0.03125,0 2.15625,0.125 1.15625,-0.9375 -3.3125,-0.1875 -0.03125,0 -0.3125,0 -0.375,0 -0.09375,-0.3437 -0.09375,-0.2813 0,-0.031 L 8,3.1875174 z m -2.5,7.1874996 -0.8125,3 0.3125,-0.2187 0.53125,-1.9375 0,-0.031 0.03125,-0.062 0.0625,-0.1562 0.125,-0.3438 -0.25,-0.25 z m 5,0 -0.25,0.25 0.125,0.3438 0.0625,0.1562 0.03125,0.062 0,0.031 0.53125,1.9375 0.3125,0.2187 -0.8125,-3 z"
     id="path3832"
     inkscape:connector-curvature="0" />
  <path
     style="font-style:normal;font-variant:normal;font-weight:normal;font-stretch:normal;text-indent:0;text-align:start;text-decoration:none;line-height:normal;letter-spacing:normal;word-spacing:normal;text-transform:none;direction:ltr;block-progression:tb;writing-mode:lr-tb;text-anchor:start;baseline-shift:baseline;opacity:0.2;color:#000000;fill:#000000;fill-opacity:1;stroke:none;stroke-width:5.35943031;marker:none;visibility:visible;display:inline;overflow:visible;enable-background:accumulate;font-family:sans-serif;-inkscape-font-specification:sans-serif"
     d="m 3.75,8.0000174 -1.15625,0.062 2.59375,2.0937996 0.28125,0.2187 0.0625,-0.1875 0.1875,-0.6249996 -0.53125,-0.4062 -1.4375,-1.1563 z m 8.5,0 -1.4375,1.1563 -0.53125,0.4062 0.1875,0.6249996 0.0625,0.1875 0.28125,-0.2187 2.59375,-2.0937996 -1.15625,-0.062 z M 8,11.218817 7.46875,11.562517 5,13.156317 l -0.3125,1.2187 2.78125,-1.8125 0.53125,-0.3437 0.53125,0.3437 2.78125,1.8125 L 11,13.156317 8.53125,11.562517 8,11.218817 z"
     id="path3005"
     inkscape:connector-curvature="0" />
</svg>

<?xml version="1.0" encoding="UTF-8" standalone="no"?>
<!-- Created with Inkscape (http://www.inkscape.org/) -->

<svg
   xmlns:dc="http://purl.org/dc/elements/1.1/"
   xmlns:cc="http://creativecommons.org/ns#"
   xmlns:rdf="http://www.w3.org/1999/02/22-rdf-syntax-ns#"
   xmlns:svg="http://www.w3.org/2000/svg"
   xmlns="http://www.w3.org/2000/svg"
   xmlns:xlink="http://www.w3.org/1999/xlink"
   xmlns:sodipodi="http://sodipodi.sourceforge.net/DTD/sodipodi-0.dtd"
   xmlns:inkscape="http://www.inkscape.org/namespaces/inkscape"
   version="1.1"
   width="16"
   height="16"
   id="svg5808"
   inkscape:version="0.48.4 r9939"
   sodipodi:docname="starred.svg">
  <sodipodi:namedview
     pagecolor="#ffffff"
     bordercolor="#666666"
     borderopacity="1"
     objecttolerance="10"
     gridtolerance="10"
     guidetolerance="10"
     inkscape:pageopacity="0"
     inkscape:pageshadow="2"
     inkscape:window-width="1364"
     inkscape:window-height="700"
     id="namedview26"
     showgrid="false"
     showborder="false"
     inkscape:zoom="1"
     inkscape:cx="13.766628"
     inkscape:cy="6.3603524"
     inkscape:window-x="0"
     inkscape:window-y="28"
     inkscape:window-maximized="1"
     inkscape:current-layer="svg5808">
    <inkscape:grid
       type="xygrid"
       id="grid3846" />
  </sodipodi:namedview>
  <defs
     id="defs5810">
    <linearGradient
       inkscape:collect="always"
       id="linearGradient3838">
      <stop
         style="stop-color:#e1bf23;stop-opacity:1;"
         offset="0"
         id="stop3840" />
      <stop
         style="stop-color:#fdf40b;stop-opacity:1"
         offset="1"
         id="stop3842" />
    </linearGradient>
    <linearGradient
       id="linearGradient6728">
      <stop
         id="stop6730"
         style="stop-color:#dcc152;stop-opacity:1"
         offset="0" />
      <stop
         id="stop6732"
         style="stop-color:#c7ae46;stop-opacity:1"
         offset="1" />
    </linearGradient>
    <linearGradient
       x1="223.51138"
       y1="1199.033"
       x2="223.51138"
       y2="1181.2115"
       id="linearGradient6807"
       xlink:href="#linearGradient4222-8-1-7-8-1-5-9"
       gradientUnits="userSpaceOnUse" />
    <linearGradient
       id="linearGradient6801">
      <stop
         id="stop6803"
         style="stop-color:#ffffff;stop-opacity:1"
         offset="0" />
      <stop
         id="stop6805"
         style="stop-color:#ffffff;stop-opacity:0"
         offset="1" />
    </linearGradient>
    <linearGradient
       x1="16.646177"
       y1="-33.686405"
       x2="1.0360155"
       y2="-33.686405"
       id="linearGradient6455"
       xlink:href="#linearGradient6801"
       gradientUnits="userSpaceOnUse"
       gradientTransform="matrix(0,-0.48414005,-0.46524241,0,-10.763163,10.845084)" />
    <linearGradient
       id="linearGradient4222-8-1-7-8-1-5-9">
      <stop
         id="stop4224-4-3-2-5-0-2-7"
         style="stop-color:#000000;stop-opacity:1"
         offset="0" />
      <stop
         id="stop4226-8-1-6-0-5-2-0"
         style="stop-color:#000000;stop-opacity:0"
         offset="1" />
    </linearGradient>
    <linearGradient
       x1="11"
       y1="1"
       x2="11"
       y2="15"
       id="linearGradient6734"
       xlink:href="#linearGradient6728"
       gradientUnits="userSpaceOnUse" />
    <linearGradient
       id="linearGradient6728-5">
      <stop
         id="stop6730-4"
         style="stop-color:#c8a100;stop-opacity:1"
         offset="0" />
      <stop
         id="stop6732-0"
         style="stop-color:#bc9000;stop-opacity:1"
         offset="1" />
    </linearGradient>
    <linearGradient
       x1="11"
       y1="1"
       x2="11"
       y2="15"
       id="linearGradient3817"
       xlink:href="#linearGradient6728-5"
       gradientUnits="userSpaceOnUse" />
    <linearGradient
       inkscape:collect="always"
       xlink:href="#linearGradient3838"
       id="linearGradient3844"
       x1="16"
       y1="16"
       x2="16"
       y2="0"
       gradientUnits="userSpaceOnUse" />
    <linearGradient
       inkscape:collect="always"
       xlink:href="#linearGradient3838"
       id="linearGradient3009"
       gradientUnits="userSpaceOnUse"
       x1="16"
       y1="16"
       x2="16"
       y2="0" />
  </defs>
  <metadata
     id="metadata5813">
    <rdf:RDF>
      <cc:Work
         rdf:about="">
        <dc:format>image/svg+xml</dc:format>
        <dc:type
           rdf:resource="http://purl.org/dc/dcmitype/StillImage" />
        <dc:title />
      </cc:Work>
    </rdf:RDF>
  </metadata>
  <path
     style="font-style:normal;font-variant:normal;font-weight:normal;font-stretch:normal;text-indent:0;text-align:start;text-decoration:none;line-height:normal;letter-spacing:normal;word-spacing:normal;text-transform:none;direction:ltr;block-progression:tb;writing-mode:lr-tb;text-anchor:start;baseline-shift:baseline;color:#000000;fill:url(#linearGradient3844);fill-opacity:1;stroke:none;stroke-width:5.35943030999999959;marker:none;visibility:visible;display:inline;overflow:visible;enable-background:accumulate;font-family:sans-serif;-inkscape-font-specification:sans-serif"
     d="M 8 1.8125 L 7.53125 3 L 6.34375 6.0625 L 6.25 6.375 L 5.90625 6.375 L 2.5625 6.5625 L 1.28125 6.625 L 2.28125 7.4375 L 4.875 9.53125 L 4.875 9.5625 L 5.15625 9.78125 L 5.0625 10.03125 L 5.0625 10.0625 L 4.21875 13.25 L 3.875 14.5 L 4.96875 13.78125 L 7.75 11.96875 L 8 11.8125 L 8.25 11.96875 L 11.03125 13.78125 L 12.125 14.5 L 11.78125 13.25 L 10.9375 10.0625 L 10.9375 10.03125 L 10.84375 9.78125 L 11.125 9.5625 L 11.125 9.53125 L 13.71875 7.4375 L 14.71875 6.625 L 13.4375 6.5625 L 10.09375 6.375 L 9.75 6.375 L 9.65625 6.0625 L 8.46875 3 L 8 1.8125 z "
     id="path3813" />
  <path
     style="font-style:normal;font-variant:normal;font-weight:normal;font-stretch:normal;text-indent:0;text-align:start;text-decoration:none;line-height:normal;letter-spacing:normal;word-spacing:normal;text-transform:none;direction:ltr;block-progression:tb;writing-mode:lr-tb;text-anchor:start;baseline-shift:baseline;color:#000000;fill:#9a7b00;fill-opacity:1;stroke:none;stroke-width:5.35943030999999959;marker:none;visibility:visible;display:inline;overflow:visible;enable-background:accumulate;font-family:sans-serif;-inkscape-font-specification:sans-serif;opacity:0.8"
     d="M 8 0.40625 L 5.875 5.875 L 0 6.21875 L 4.5625 9.90625 L 3.0625 15.59375 L 8 12.40625 L 12.9375 15.59375 L 11.4375 9.90625 L 16 6.21875 L 10.125 5.875 L 8 0.40625 z M 8 3.1875 L 9.1875 6.25 L 9.40625 6.84375 L 10.0625 6.875 L 13.40625 7.0625 L 10.8125 9.15625 L 10.28125 9.5625 L 10.46875 10.1875 L 11.3125 13.375 L 8.53125 11.5625 L 8 11.21875 L 7.46875 11.5625 L 4.6875 13.375 L 5.53125 10.1875 L 5.71875 9.5625 L 5.1875 9.15625 L 2.59375 7.0625 L 5.9375 6.875 L 6.59375 6.84375 L 6.8125 6.25 L 8 3.1875 z "
     id="polygon5122-0" />
  <path
     style="font-style:normal;font-variant:normal;font-weight:normal;font-stretch:normal;text-indent:0;text-align:start;text-decoration:none;line-height:normal;letter-spacing:normal;word-spacing:normal;text-transform:none;direction:ltr;block-progression:tb;writing-mode:lr-tb;text-anchor:start;baseline-shift:baseline;color:#000000;fill:#ffffff;fill-opacity:1;stroke:none;stroke-width:5.35943030999999959;marker:none;visibility:visible;display:inline;overflow:visible;enable-background:accumulate;font-family:sans-serif;-inkscape-font-specification:sans-serif;opacity:0.6"
     d="M 8 3.1875 L 6.8125 6.21875 L 6.8125 6.25 L 6.71875 6.53125 L 6.625 6.875 L 6.25 6.875 L 5.9375 6.875 L 5.90625 6.875 L 2.59375 7.0625 L 3.75 8 L 5.90625 7.875 L 5.9375 7.875 L 6.25 7.875 L 6.625 7.875 L 6.71875 7.53125 L 6.8125 7.25 L 6.8125 7.21875 L 8 4.1875 L 9.1875 7.21875 L 9.1875 7.25 L 9.28125 7.53125 L 9.375 7.875 L 9.75 7.875 L 10.0625 7.875 L 10.09375 7.875 L 12.25 8 L 13.40625 7.0625 L 10.09375 6.875 L 10.0625 6.875 L 9.75 6.875 L 9.375 6.875 L 9.28125 6.53125 L 9.1875 6.25 L 9.1875 6.21875 L 8 3.1875 z M 5.5 10.375 L 4.6875 13.375 L 5 13.15625 L 5.53125 11.21875 L 5.53125 11.1875 L 5.5625 11.125 L 5.625 10.96875 L 5.75 10.625 L 5.5 10.375 z M 10.5 10.375 L 10.25 10.625 L 10.375 10.96875 L 10.4375 11.125 L 10.46875 11.1875 L 10.46875 11.21875 L 11 13.15625 L 11.3125 13.375 L 10.5 10.375 z "
     id="path3832" />
  <path
     style="font-style:normal;font-variant:normal;font-weight:normal;font-stretch:normal;text-indent:0;text-align:start;text-decoration:none;line-height:normal;letter-spacing:normal;word-spacing:normal;text-transform:none;direction:ltr;block-progression:tb;writing-mode:lr-tb;text-anchor:start;baseline-shift:baseline;color:#000000;fill:#000000;fill-opacity:1;stroke:none;stroke-width:5.35943030999999959;marker:none;visibility:visible;display:inline;overflow:visible;enable-background:accumulate;font-family:sans-serif;-inkscape-font-specification:sans-serif;opacity:0.4"
     d="M 3.75,8 2.59375,8.0625 5.1875,10.15625 5.46875,10.375 5.53125,10.1875 5.71875,9.5625 5.1875,9.15625 3.75,8 z m 8.5,0 -1.4375,1.15625 -0.53125,0.40625 0.1875,0.625 0.0625,0.1875 L 10.8125,10.15625 13.40625,8.0625 12.25,8 z M 8,11.21875 7.46875,11.5625 5,13.15625 4.6875,14.375 7.46875,12.5625 8,12.21875 8.53125,12.5625 11.3125,14.375 11,13.15625 8.53125,11.5625 8,11.21875 z"
     id="path3005"
     inkscape:connector-curvature="0" />
</svg>
